lib/brands/icons/nextdoor.svg

<svg xmlns="http://www.w3.org/2000/svg" fill="none" aria-hidden="true" viewBox="0 0 48 48"><g id="nextdoor-Icon"><g id="Group"><path id="Vector" fill="#8ED500" d="M24.001 42C33.9421 42 42.001 33.9412 42.001 24C42.001 14.0589 33.9421 6.00003 24.001 6.00003C14.0599 6.00003 6.00098 14.0589 6.00098 24C6.00098 33.9412 14.0599 42 24.001 42Z"/><path id="Vector_2" fill="white" d="M24.9375 16.2218C22.2368 16.2218 19.9344 17.4638 18.6426 19.3619C18.5342 19.5201 18.3497 19.8599 18.1066 19.8599C16.9349 19.8599 16.85 18.4129 16.8119 17.1123C16.8074 17.0193 16.7677 16.9314 16.7007 16.8667C16.6338 16.8019 16.5447 16.7651 16.4516 16.7637L13.0273 16.7461C12.9791 16.7461 12.9314 16.7557 12.887 16.7743C12.8425 16.7929 12.8022 16.8202 12.7684 16.8546C12.7346 16.8889 12.708 16.9297 12.6901 16.9744C12.6722 17.0192 12.6633 17.067 12.6641 17.1152C12.7403 20.2905 13.3232 22.4464 17.1692 23.3046C17.2718 23.3285 17.3632 23.3863 17.4286 23.4688C17.494 23.5512 17.5296 23.6534 17.5295 23.7587V30.8884C17.5295 30.9839 17.5675 31.0756 17.6351 31.1431C17.7026 31.2107 17.7943 31.2487 17.8898 31.2487H21.2145C21.3108 31.2487 21.4032 31.2104 21.4713 31.1423C21.5394 31.0742 21.5777 30.9818 21.5777 30.8854V23.5214C21.5777 21.8869 22.7494 20.0298 24.9375 20.0298C27.0348 20.0298 28.2973 21.8869 28.2973 23.5214V30.8854C28.2981 30.9815 28.3366 31.0735 28.4045 31.1414C28.4725 31.2094 28.5644 31.2479 28.6605 31.2487H31.9852C32.0815 31.2487 32.1739 31.2104 32.242 31.1423C32.3101 31.0742 32.3484 30.9818 32.3484 30.8854V22.9766C32.3484 19.192 29.1204 16.2218 24.9375 16.2218Z"/></g></g></svg>

<svg xmlns="http://www.w3.org/2000/svg" fill="none" aria-hidden="true" viewBox="0 0 48 48"><path fill="#8ED500" d="M24 42c9.942 0 18-8.059 18-18S33.943 6 24 6C14.06 6 6 14.059 6 24s8.06 18 18 18Z"/><path fill="#fff" d="M24.937 16.222c-2.7 0-5.003 1.242-6.295 3.14-.108.158-.293.498-.536.498-1.171 0-1.256-1.447-1.294-2.748a.366.366 0 0 0-.36-.348l-3.425-.018a.364.364 0 0 0-.363.37c.076 3.175.659 5.33 4.505 6.189a.466.466 0 0 1 .36.454v7.13a.36.36 0 0 0 .36.36h3.325a.363.363 0 0 0 .364-.364v-7.364c0-1.634 1.171-3.491 3.36-3.491 2.097 0 3.36 1.857 3.36 3.491v7.364a.366.366 0 0 0 .362.364h3.325a.363.363 0 0 0 .363-.364v-7.908c0-3.785-3.228-6.755-7.41-6.755Z"/></svg>
